Numix-Circle/48x48/apps/nvidia.svg

<?xml version="1.0" encoding="UTF-8" standalone="no"?>
<svg
   xmlns:dc="http://purl.org/dc/elements/1.1/"
   xmlns:cc="http://creativecommons.org/ns#"
   xmlns:rdf="http://www.w3.org/1999/02/22-rdf-syntax-ns#"
   xmlns:svg="http://www.w3.org/2000/svg"
   xmlns="http://www.w3.org/2000/svg"
   xmlns:xlink="http://www.w3.org/1999/xlink"
   xmlns:sodipodi="http://sodipodi.sourceforge.net/DTD/sodipodi-0.dtd"
   xmlns:inkscape="http://www.inkscape.org/namespaces/inkscape"
   viewBox="0 0 48 48"
   id="svg3099"
   version="1.1"
   inkscape:version="0.48.4 r9939"
   width="100%"
   height="100%"
   sodipodi:docname="nvidia.svg">
  <metadata
     id="metadata3158">
    <rdf:RDF>
      <cc:Work
         rdf:about="">
        <dc:format>image/svg+xml</dc:format>
        <dc:type
           rdf:resource="http://purl.org/dc/dcmitype/StillImage" />
      </cc:Work>
    </rdf:RDF>
  </metadata>
  <sodipodi:namedview
     pagecolor="#ffffff"
     bordercolor="#666666"
     borderopacity="1"
     objecttolerance="10"
     gridtolerance="10"
     guidetolerance="10"
     inkscape:pageopacity="0"
     inkscape:pageshadow="2"
     inkscape:window-width="640"
     inkscape:window-height="480"
     id="namedview3156"
     showgrid="false"
     inkscape:zoom="4.9166667"
     inkscape:cx="21.575852"
     inkscape:cy="27.869513"
     inkscape:window-x="0"
     inkscape:window-y="0"
     inkscape:window-maximized="0"
     inkscape:current-layer="svg3099" />
  <defs
     id="defs3101">
    <linearGradient
       id="linearGradient3764"
       x1="1"
       x2="47"
       gradientUnits="userSpaceOnUse"
       gradientTransform="matrix(0,-1,1,0,-1.5e-6,47.999998)">
      <stop
         stop-color="#94c341"
         stop-opacity="1"
         id="stop3104" />
      <stop
         offset="1"
         stop-color="#9dc851"
         stop-opacity="1"
         id="stop3106" />
    </linearGradient>
    <clipPath
       id="clipPath-438674793">
      <g
         transform="translate(0,-1004.3622)"
         id="g3109">
        <path
           d="m -24 13 c 0 1.105 -0.672 2 -1.5 2 -0.828 0 -1.5 -0.895 -1.5 -2 0 -1.105 0.672 -2 1.5 -2 0.828 0 1.5 0.895 1.5 2 z"
           transform="matrix(15.333333,0,0,11.5,414.99999,878.8622)"
           fill="#1890d0"
           id="path3111" />
      </g>
    </clipPath>
    <clipPath
       id="clipPath-452415354">
      <g
         transform="translate(0,-1004.3622)"
         id="g3114">
        <path
           d="m -24 13 c 0 1.105 -0.672 2 -1.5 2 -0.828 0 -1.5 -0.895 -1.5 -2 0 -1.105 0.672 -2 1.5 -2 0.828 0 1.5 0.895 1.5 2 z"
           transform="matrix(15.333333,0,0,11.5,414.99999,878.8622)"
           fill="#1890d0"
           id="path3116" />
      </g>
    </clipPath>
    <linearGradient
       inkscape:collect="always"
       xlink:href="#linearGradient3764"
       id="linearGradient3185"
       gradientUnits="userSpaceOnUse"
       gradientTransform="matrix(0,-1,1,0,-1.5e-6,47.999998)"
       x1="1"
       x2="47" />
    <linearGradient
       inkscape:collect="always"
       xlink:href="#linearGradient3764"
       id="linearGradient3241"
       gradientUnits="userSpaceOnUse"
       gradientTransform="matrix(0,-1,1,0,-1.5e-6,47.999998)"
       x1="1"
       x2="47" />
  </defs>
  <g
     id="g3118">
    <path
       d="m 36.31 5 c 5.859 4.062 9.688 10.831 9.688 18.5 c 0 12.426 -10.07 22.5 -22.5 22.5 c -7.669 0 -14.438 -3.828 -18.5 -9.688 c 1.037 1.822 2.306 3.499 3.781 4.969 c 4.085 3.712 9.514 5.969 15.469 5.969 c 12.703 0 23 -10.298 23 -23 c 0 -5.954 -2.256 -11.384 -5.969 -15.469 c -1.469 -1.475 -3.147 -2.744 -4.969 -3.781 z m 4.969 3.781 c 3.854 4.113 6.219 9.637 6.219 15.719 c 0 12.703 -10.297 23 -23 23 c -6.081 0 -11.606 -2.364 -15.719 -6.219 c 4.16 4.144 9.883 6.719 16.219 6.719 c 12.703 0 23 -10.298 23 -23 c 0 -6.335 -2.575 -12.06 -6.719 -16.219 z"
       opacity="0.05"
       id="path3120" />
    <path
       d="m 41.28 8.781 c 3.712 4.085 5.969 9.514 5.969 15.469 c 0 12.703 -10.297 23 -23 23 c -5.954 0 -11.384 -2.256 -15.469 -5.969 c 4.113 3.854 9.637 6.219 15.719 6.219 c 12.703 0 23 -10.298 23 -23 c 0 -6.081 -2.364 -11.606 -6.219 -15.719 z"
       opacity="0.1"
       id="path3122" />
    <path
       d="m 31.25 2.375 c 8.615 3.154 14.75 11.417 14.75 21.13 c 0 12.426 -10.07 22.5 -22.5 22.5 c -9.708 0 -17.971 -6.135 -21.12 -14.75 a 23 23 0 0 0 44.875 -7 a 23 23 0 0 0 -16 -21.875 z"
       opacity="0.2"
       id="path3124" />
  </g>
  <path
     style="fill:url(#linearGradient3185);fill-opacity:1"
     d="M 24 1 L 24 16.8125 C 24.125 16.8045 24.25 16.78525 24.375 16.78125 C 30.805 16.56625 34.96875 22.0625 34.96875 22.0625 C 34.96875 22.0625 30.16625 27.90625 25.15625 27.90625 C 24.74225 27.90625 24.367 27.84025 24 27.78125 L 24 29.375 C 24.305 29.411 24.6095 29.4375 24.9375 29.4375 C 29.6025 29.4375 32.984 27.03875 36.25 24.21875 C 36.793 24.65275 39.01175 25.69525 39.46875 26.15625 C 36.36275 28.76225 29.13325 30.875 25.03125 30.875 C 24.68025 30.875 24.336 30.8435 24 30.8125 L 24 47 C 36.703 47 47 36.703 47 24 C 47 11.297 36.703 1 24 1 z M 24 30.8125 L 24 29.375 C 18.293 28.658 16.34375 22.34375 16.34375 22.34375 C 16.34375 22.34375 18.895 18.5785 24 18.1875 L 24 16.8125 C 18.348 17.2655 13.46875 22.0625 13.46875 22.0625 C 13.46875 22.0625 16.223 30.0785 24 30.8125 z M 24 18.1875 L 24 19.875 C 24.265 19.848 24.5355 19.8125 24.8125 19.8125 C 27.7735 19.8125 29.53125 22.125 29.53125 22.125 L 27.125 24.15625 C 26.07 22.40225 25.684 21.5545 24 21.3125 L 24 26.46875 C 24.375 26.58275 24.793 26.65625 25.25 26.65625 C 28.761 26.65625 32.03125 22.125 32.03125 22.125 C 32.03125 22.125 28.996 18.01125 24.375 18.15625 C 24.246 18.16025 24.125 18.1795 24 18.1875 z M 24 26.46875 C 21.566 25.64875 20.78125 22.78125 20.78125 22.78125 C 20.78125 22.78125 21.86375 21.4925 23.34375 21.3125 C 23.55475 21.2895 23.773 21.2855 24 21.3125 L 24 19.875 C 20.559 20.246 18.5 22.53125 18.5 22.53125 C 18.5 22.53125 19.687 27.01125 24 27.78125 L 24 26.46875 z "
     id="path3128" />
  <g
     id="g3130" />
  <path
     style="opacity:0.1;fill:#000000;fill-opacity:1;fill-rule:evenodd;stroke:none"
     d="M 24 1 L 24 16.8125 C 24.125 16.8045 24.25 16.78525 24.375 16.78125 C 24.586645 16.774173 24.793333 16.807601 25 16.8125 L 25 1.03125 C 24.669144 1.0171284 24.334333 1 24 1 z M 24 16.8125 C 18.348 17.2655 13.46875 22.0625 13.46875 22.0625 C 13.46875 22.0625 14.611642 25.34875 17.46875 27.90625 C 15.344135 25.565719 14.46875 23.0625 14.46875 23.0625 C 14.46875 23.0625 18.779782 18.815393 24 17.9375 L 24 16.8125 z M 25 18.1875 L 25 19.1875 C 25.125 19.1795 25.246 19.16025 25.375 19.15625 C 28.218954 19.067011 30.445201 20.596042 31.75 21.78125 C 31.099389 20.995514 28.658793 18.376991 25 18.1875 z M 25 19.1875 C 24.658087 19.213688 24.319003 19.258185 24 19.3125 L 24 19.875 C 24.265 19.848 24.5355 19.8125 24.8125 19.8125 C 24.877591 19.8125 24.936078 19.810314 25 19.8125 L 25 19.1875 z M 24 19.875 C 20.559 20.246 18.5 22.53125 18.5 22.53125 C 18.5 22.53125 19.11369 24.880269 21.09375 26.46875 C 19.915101 25.0518 19.5 23.53125 19.5 23.53125 C 19.5 23.53125 20.529936 22.423971 22.3125 21.625 C 22.816997 21.398877 23.37652 21.204994 24 21.0625 L 24 19.875 z M 34.4375 21.46875 C 34.686313 21.749389 34.96875 22.0625 34.96875 22.0625 C 34.96875 22.0625 31.943924 25.732789 28.1875 27.25 C 27.21399 27.643199 26.187403 27.90625 25.15625 27.90625 C 25.101927 27.90625 25.053058 27.908358 25 27.90625 L 25 28.78125 C 25.367 28.84025 25.74225 28.90625 26.15625 28.90625 C 31.16625 28.90625 35.96875 23.0625 35.96875 23.0625 C 35.96875 23.0625 35.414907 22.361444 34.4375 21.46875 z M 25 28.78125 C 24.642879 28.717493 24.315358 28.609979 24 28.5 L 24 29.375 C 24.305 29.411 24.6095 29.4375 24.9375 29.4375 C 24.958299 29.4375 24.979252 29.437595 25 29.4375 L 25 28.78125 z M 24 29.375 C 22.261475 29.15658 20.873465 28.420532 19.78125 27.5 C 20.803711 28.649912 22.169428 29.716674 24 30.1875 L 24 29.375 z M 25 21.59375 L 25 22.3125 C 25.522433 22.387576 25.918687 22.518101 26.25 22.71875 C 25.887687 22.19745 25.518562 21.830812 25 21.59375 z M 25 22.3125 C 24.773 22.2855 24.55475 22.2895 24.34375 22.3125 C 24.223045 22.32718 24.115045 22.37812 24 22.40625 L 24 26.46875 C 24.303371 26.560975 24.642463 26.603259 25 26.625 L 25 22.3125 z M 24 26.46875 C 23.540279 26.313873 23.160376 26.049094 22.8125 25.78125 C 23.123856 26.200986 23.51126 26.602792 24 26.9375 L 24 26.46875 z M 29.5 22.15625 L 27.375 23.9375 C 27.601232 24.285091 27.839865 24.682196 28.125 25.15625 L 30.53125 23.125 C 30.53125 23.125 30.154817 22.668213 29.5 22.15625 z M 39.1875 26.34375 C 35.953848 28.852323 29.022496 30.875 25.03125 30.875 C 25.020653 30.875 25.010585 30.875057 25 30.875 L 25 31.8125 C 25.336 31.8435 25.68025 31.875 26.03125 31.875 C 30.13325 31.875 37.36275 29.76225 40.46875 27.15625 C 40.274362 26.96016 39.754843 26.658678 39.1875 26.34375 z M 25 31.8125 C 24.654319 31.779874 24.326033 31.716307 24 31.65625 L 24 47 C 24.334333 47 24.669144 46.982872 25 46.96875 L 25 31.8125 z "
     id="path3142" />
  <path
     style="fill:#2d2d2d;fill-opacity:1;fill-rule:evenodd;stroke:none"
     d="M 24 1 C 11.297 1 1 11.297 1 24 C 1 36.703 11.297 47 24 47 L 24 30.8125 C 16.223 30.0785 13.46875 22.0625 13.46875 22.0625 C 13.46875 22.0625 18.348 17.2655 24 16.8125 L 24 1 z M 24 16.8125 L 24 18.1875 C 24.125 18.1795 24.246 18.16025 24.375 18.15625 C 28.996 18.01125 32.03125 22.125 32.03125 22.125 C 32.03125 22.125 28.761 26.65625 25.25 26.65625 C 24.793 26.65625 24.375 26.58275 24 26.46875 L 24 27.78125 C 24.367 27.84025 24.74225 27.90625 25.15625 27.90625 C 30.16625 27.90625 34.96875 22.0625 34.96875 22.0625 C 34.96875 22.0625 30.805 16.56625 24.375 16.78125 C 24.25 16.78525 24.125 16.8045 24 16.8125 z M 24 27.78125 C 19.687 27.01125 18.5 22.53125 18.5 22.53125 C 18.5 22.53125 20.559 20.246 24 19.875 L 24 18.1875 C 18.895 18.5785 16.34375 22.34375 16.34375 22.34375 C 16.34375 22.34375 18.293 28.658 24 29.375 L 24 27.78125 z M 24 29.375 L 24 30.8125 C 24.336 30.8435 24.68025 30.875 25.03125 30.875 C 29.13325 30.875 36.36275 28.76225 39.46875 26.15625 C 39.01175 25.69525 36.793 24.65275 36.25 24.21875 C 32.984 27.03875 29.6025 29.4375 24.9375 29.4375 C 24.6095 29.4375 24.305 29.411 24 29.375 z M 24 19.875 L 24 21.3125 C 25.684 21.5545 26.07 22.40225 27.125 24.15625 L 29.53125 22.125 C 29.53125 22.125 27.7735 19.8125 24.8125 19.8125 C 24.5355 19.8125 24.265 19.848 24 19.875 z M 24 21.3125 C 23.773 21.2855 23.55475 21.2895 23.34375 21.3125 C 21.86375 21.4925 20.78125 22.78125 20.78125 22.78125 C 20.78125 22.78125 21.566 25.64875 24 26.46875 L 24 21.3125 z "
     id="path3150" />
  <g
     id="g3152">
    <path
       d="m 40.03 7.531 c 3.712 4.084 5.969 9.514 5.969 15.469 0 12.703 -10.297 23 -23 23 c -5.954 0 -11.384 -2.256 -15.469 -5.969 4.178 4.291 10.01 6.969 16.469 6.969 c 12.703 0 23 -10.298 23 -23 0 -6.462 -2.677 -12.291 -6.969 -16.469 z"
       opacity="0.1"
       id="path3154" />
  </g>
</svg>

<svg xmlns="http://www.w3.org/2000/svg" viewBox="0 0 48 48"><defs><clipPath><g transform="translate(0,-1004.3622)"><path d="m -24 13 c 0 1.105 -0.672 2 -1.5 2 -0.828 0 -1.5 -0.895 -1.5 -2 0 -1.105 0.672 -2 1.5 -2 0.828 0 1.5 0.895 1.5 2 z" transform="matrix(15.333333,0,0,11.5,414.99999,878.8622)" fill="#1890d0"/></g></clipPath><clipPath><g transform="translate(0,-1004.3622)"><path d="m -24 13 c 0 1.105 -0.672 2 -1.5 2 -0.828 0 -1.5 -0.895 -1.5 -2 0 -1.105 0.672 -2 1.5 -2 0.828 0 1.5 0.895 1.5 2 z" transform="matrix(15.333333,0,0,11.5,414.99999,878.8622)" fill="#1890d0"/></g></clipPath><linearGradient id="linearGradient3185" gradientUnits="userSpaceOnUse" gradientTransform="matrix(0,-1,1,0,-1.5e-6,47.999998)" x1="1" x2="47"><stop stop-color="#94c341" stop-opacity="1"/><stop offset="1" stop-color="#9dc851" stop-opacity="1"/></linearGradient></defs><g><path d="m 36.31 5 c 5.859 4.062 9.688 10.831 9.688 18.5 c 0 12.426 -10.07 22.5 -22.5 22.5 c -7.669 0 -14.438 -3.828 -18.5 -9.688 c 1.037 1.822 2.306 3.499 3.781 4.969 c 4.085 3.712 9.514 5.969 15.469 5.969 c 12.703 0 23 -10.298 23 -23 c 0 -5.954 -2.256 -11.384 -5.969 -15.469 c -1.469 -1.475 -3.147 -2.744 -4.969 -3.781 z m 4.969 3.781 c 3.854 4.113 6.219 9.637 6.219 15.719 c 0 12.703 -10.297 23 -23 23 c -6.081 0 -11.606 -2.364 -15.719 -6.219 c 4.16 4.144 9.883 6.719 16.219 6.719 c 12.703 0 23 -10.298 23 -23 c 0 -6.335 -2.575 -12.06 -6.719 -16.219 z" opacity="0.05"/><path d="m 41.28 8.781 c 3.712 4.085 5.969 9.514 5.969 15.469 c 0 12.703 -10.297 23 -23 23 c -5.954 0 -11.384 -2.256 -15.469 -5.969 c 4.113 3.854 9.637 6.219 15.719 6.219 c 12.703 0 23 -10.298 23 -23 c 0 -6.081 -2.364 -11.606 -6.219 -15.719 z" opacity="0.1"/><path d="m 31.25 2.375 c 8.615 3.154 14.75 11.417 14.75 21.13 c 0 12.426 -10.07 22.5 -22.5 22.5 c -9.708 0 -17.971 -6.135 -21.12 -14.75 a 23 23 0 0 0 44.875 -7 a 23 23 0 0 0 -16 -21.875 z" opacity="0.2"/></g><path d="m 24 1 l 0 15.813 c 0.125 -0.008 0.25 -0.027 0.375 -0.031 c 6.43 -0.215 10.594 5.281 10.594 5.281 c 0 0 -4.802 5.844 -9.813 5.844 c -0.414 0 -0.789 -0.066 -1.156 -0.125 l 0 1.594 c 0.305 0.036 0.61 0.063 0.938 0.063 c 4.665 0 8.05 -2.399 11.313 -5.219 c 0.543 0.434 2.762 1.477 3.219 1.938 c -3.106 2.606 -10.336 4.719 -14.438 4.719 c -0.351 0 -0.695 -0.032 -1.031 -0.063 l 0 16.188 c 12.703 0 23 -10.297 23 -23 c 0 -12.703 -10.297 -23 -23 -23 z m 0 29.813 l 0 -1.438 c -5.707 -0.717 -7.656 -7.03 -7.656 -7.03 c 0 0 2.551 -3.765 7.656 -4.156 l 0 -1.375 c -5.652 0.453 -10.531 5.25 -10.531 5.25 c 0 0 2.754 8.02 10.531 8.75 z m 0 -12.625 l 0 1.688 c 0.265 -0.027 0.535 -0.063 0.813 -0.063 c 2.961 0 4.719 2.313 4.719 2.313 l -2.406 2.031 c -1.055 -1.754 -1.441 -2.602 -3.125 -2.844 l 0 5.156 c 0.375 0.114 0.793 0.188 1.25 0.188 c 3.511 0 6.781 -4.531 6.781 -4.531 c 0 0 -3.035 -4.114 -7.656 -3.969 c -0.129 0.004 -0.25 0.023 -0.375 0.031 z m 0 8.281 c -2.434 -0.82 -3.219 -3.688 -3.219 -3.688 c 0 0 1.082 -1.289 2.563 -1.469 c 0.211 -0.023 0.429 -0.027 0.656 0 l 0 -1.438 c -3.441 0.371 -5.5 2.656 -5.5 2.656 c 0 0 1.187 4.48 5.5 5.25 l 0 -1.313 z" fill="url(#linearGradient3185)" fill-opacity="1"/><path d="m 24 1 l 0 15.813 c 0.125 -0.008 0.25 -0.027 0.375 -0.031 c 0.212 -0.007 0.418 0.026 0.625 0.031 l 0 -15.781 c -0.331 -0.014 -0.666 -0.031 -1 -0.031 z m 0 15.813 c -5.652 0.453 -10.531 5.25 -10.531 5.25 c 0 0 1.143 3.286 4 5.844 c -2.125 -2.341 -3 -4.844 -3 -4.844 c 0 0 4.311 -4.247 9.531 -5.125 l 0 -1.125 z m 1 1.375 l 0 1 c 0.125 -0.008 0.246 -0.027 0.375 -0.031 c 2.844 -0.089 5.07 1.44 6.375 2.625 c -0.651 -0.786 -3.091 -3.404 -6.75 -3.594 z m 0 1 c -0.342 0.026 -0.681 0.071 -1 0.125 l 0 0.563 c 0.265 -0.027 0.535 -0.063 0.813 -0.063 c 0.065 0 0.124 -0.002 0.188 0 l 0 -0.625 z m -1 0.688 c -3.441 0.371 -5.5 2.656 -5.5 2.656 c 0 0 0.614 2.349 2.594 3.938 c -1.179 -1.417 -1.594 -2.938 -1.594 -2.938 c 0 0 1.03 -1.107 2.813 -1.906 c 0.504 -0.226 1.064 -0.42 1.688 -0.563 l 0 -1.188 z m 10.438 1.594 c 0.249 0.281 0.531 0.594 0.531 0.594 c 0 0 -3.02 3.67 -6.781 5.188 c -0.974 0.393 -2 0.656 -3.03 0.656 c -0.054 0 -0.103 0.002 -0.156 0 l 0 0.875 c 0.367 0.059 0.742 0.125 1.156 0.125 c 5.01 0 9.813 -5.844 9.813 -5.844 c 0 0 -0.554 -0.701 -1.531 -1.594 z m -9.438 7.313 c -0.357 -0.064 -0.685 -0.171 -1 -0.281 l 0 0.875 c 0.305 0.036 0.61 0.063 0.938 0.063 c 0.021 0 0.042 0 0.063 0 l 0 -0.656 z m -1 0.594 c -1.739 -0.218 -3.127 -0.954 -4.219 -1.875 c 1.022 1.15 2.388 2.217 4.219 2.688 l 0 -0.813 z m 1 -7.781 l 0 0.719 c 0.522 0.075 0.919 0.206 1.25 0.406 c -0.362 -0.521 -0.731 -0.888 -1.25 -1.125 z m 0 0.719 c -0.227 -0.027 -0.445 -0.023 -0.656 0 c -0.121 0.015 -0.229 0.066 -0.344 0.094 l 0 4.063 c 0.303 0.092 0.642 0.135 1 0.156 l 0 -4.313 z m -1 4.156 c -0.46 -0.155 -0.84 -0.42 -1.188 -0.688 c 0.311 0.42 0.699 0.822 1.188 1.156 l 0 -0.469 z m 5.5 -4.313 l -2.125 1.781 c 0.226 0.348 0.465 0.745 0.75 1.219 l 2.406 -2.031 c 0 0 -0.376 -0.457 -1.031 -0.969 z m 9.688 4.188 c -3.234 2.509 -10.165 4.531 -14.156 4.531 c -0.011 0 -0.021 0 -0.031 0 l 0 0.938 c 0.336 0.031 0.68 0.063 1.031 0.063 c 4.102 0 11.331 -2.113 14.438 -4.719 c -0.194 -0.196 -0.714 -0.498 -1.281 -0.813 z m -14.188 5.469 c -0.346 -0.033 -0.674 -0.096 -1 -0.156 l 0 15.344 c 0.334 0 0.669 -0.017 1 -0.031 l 0 -15.16 z" opacity="0.1" fill="#000" fill-rule="evenodd" stroke="none" fill-opacity="1"/><path d="m 24 1 c -12.703 0 -23 10.297 -23 23 c 0 12.703 10.297 23 23 23 l 0 -16.188 c -7.777 -0.734 -10.531 -8.75 -10.531 -8.75 c 0 0 4.879 -4.797 10.531 -5.25 l 0 -15.813 z m 0 15.813 l 0 1.375 c 0.125 -0.008 0.246 -0.027 0.375 -0.031 c 4.621 -0.145 7.656 3.969 7.656 3.969 c 0 0 -3.27 4.531 -6.781 4.531 c -0.457 0 -0.875 -0.073 -1.25 -0.188 l 0 1.313 c 0.367 0.059 0.742 0.125 1.156 0.125 c 5.01 0 9.813 -5.844 9.813 -5.844 c 0 0 -4.164 -5.496 -10.594 -5.281 c -0.125 0.004 -0.25 0.023 -0.375 0.031 z m 0 10.969 c -4.313 -0.77 -5.5 -5.25 -5.5 -5.25 c 0 0 2.059 -2.285 5.5 -2.656 l 0 -1.688 c -5.105 0.391 -7.656 4.156 -7.656 4.156 c 0 0 1.949 6.314 7.656 7.03 l 0 -1.594 z m 0 1.594 l 0 1.438 c 0.336 0.031 0.68 0.063 1.031 0.063 c 4.102 0 11.331 -2.113 14.438 -4.719 c -0.457 -0.461 -2.676 -1.503 -3.219 -1.938 c -3.266 2.82 -6.648 5.219 -11.313 5.219 c -0.328 0 -0.633 -0.026 -0.938 -0.063 z m 0 -9.5 l 0 1.438 c 1.684 0.242 2.07 1.09 3.125 2.844 l 2.406 -2.031 c 0 0 -1.758 -2.313 -4.719 -2.313 c -0.277 0 -0.547 0.035 -0.813 0.063 z m 0 1.438 c -0.227 -0.027 -0.445 -0.023 -0.656 0 c -1.48 0.18 -2.563 1.469 -2.563 1.469 c 0 0 0.785 2.867 3.219 3.688 l 0 -5.156 z" fill="#2d2d2d" fill-rule="evenodd" stroke="none" fill-opacity="1"/><g><path d="m 40.03 7.531 c 3.712 4.084 5.969 9.514 5.969 15.469 0 12.703 -10.297 23 -23 23 c -5.954 0 -11.384 -2.256 -15.469 -5.969 4.178 4.291 10.01 6.969 16.469 6.969 c 12.703 0 23 -10.298 23 -23 0 -6.462 -2.677 -12.291 -6.969 -16.469 z" opacity="0.1"/></g></svg>
